X:1
T: The Reel of Corryvreckan
C:Bruce Shawyer
R:Reel
Q:232
K:A
M:4/4
L:1/8
|:E2|"A"A2AB cBAc|"E7"BcdB "A"c2A2|"Bm"d2dc Bcdc|"E7"BAGF G2E2|
"A"A2AB cBAc|"E7"BcdB "A"c2e2|"Bm"fedf "A"e2c2|"E7"BAGB "A"A2:|
|:e2|"A"a2ag agfe|"D"fedf "A"e2c2|"Bm"d2dc dcBA|"E7"BAGF G2E2|
"A"a2ag agfe|"D"fedf "A"e3e|"D"fedf "A"e2c2|"E7"BAGB "A"A2:|

